components/Common/Svg/svgs/focusOnTheTargetAudience.svg

<svg
  width="90"
  height="90"
  viewBox="0 0 90 90"
  fill="none"
  xmlns="http://www.w3.org/2000/svg"
>
  <circle
    opacity="0.5"
    cx="45"
    cy="45"
    r="45"
    fill="#FFE603"
  ></circle>
  <path
    d="M62.6562 61.2438H62.8063V61.0938V55.1562C62.8063 54.5919 63.2638 54.1344 63.8281 54.1344C64.3925 54.1344 64.85 54.5919 64.85 55.1562V62.2656C64.85 62.83 64.3925 63.2875 63.8281 63.2875H56.7188C56.1544 63.2875 55.6969 62.83 55.6969 62.2656C55.6969 61.7013 56.1544 61.2438 56.7188 61.2438H62.6562Z"
    fill="#161616"
    stroke="#FFF281"
    stroke-width="0.3"
  ></path>
  <path
    d="M27.1937 61.0938V61.2438H27.3438H33.2812C33.8456 61.2438 34.3031 61.7013 34.3031 62.2656C34.3031 62.83 33.8456 63.2875 33.2812 63.2875H26.1719C25.6075 63.2875 25.15 62.83 25.15 62.2656V55.1562C25.15 54.5919 25.6075 54.1344 26.1719 54.1344C26.7362 54.1344 27.1937 54.5919 27.1937 55.1562V61.0938Z"
    fill="#161616"
    stroke="#FFF281"
    stroke-width="0.3"
  ></path>
  <path
    d="M27.3438 28.7562H27.1937V28.9062V34.8438C27.1937 35.4081 26.7362 35.8656 26.1719 35.8656C25.6075 35.8656 25.15 35.4081 25.15 34.8438V27.7344C25.15 27.17 25.6075 26.7125 26.1719 26.7125H33.2812C33.8456 26.7125 34.3031 27.17 34.3031 27.7344C34.3031 28.2987 33.8456 28.7562 33.2812 28.7562H27.3438Z"
    fill="#161616"
    stroke="#FFF281"
    stroke-width="0.3"
  ></path>
  <path
    d="M62.8063 28.9062V28.7562H62.6562H56.6406C56.0763 28.7562 55.6188 28.2987 55.6188 27.7344C55.6188 27.17 56.0763 26.7125 56.6406 26.7125H63.8281C64.3925 26.7125 64.85 27.17 64.85 27.7344V34.8438C64.85 35.4081 64.3925 35.8656 63.8281 35.8656C63.2638 35.8656 62.8063 35.4081 62.8063 34.8438V28.9062Z"
    fill="#161616"
    stroke="#FFF281"
    stroke-width="0.3"
  ></path>
  <path
    d="M44.9993 42.2634C47.6784 42.2634 49.858 40.0838 49.858 37.4047C49.858 34.7256 47.6784 32.546 44.9993 32.546C42.3202 32.546 40.1406 34.7256 40.1406 37.4047C40.1406 40.0838 42.3202 42.2634 44.9993 42.2634ZM44.9993 34.2214C46.7546 34.2214 48.1826 35.6495 48.1826 37.4047C48.1826 39.16 46.7546 40.588 44.9993 40.588C43.2441 40.588 41.816 39.16 41.816 37.4047C41.816 35.6495 43.2441 34.2214 44.9993 34.2214Z"
    fill="#161616"
  ></path>
  <path
    d="M54.8294 42.2634C56.5231 42.2634 57.901 40.8855 57.901 39.1918C57.901 37.4982 56.5231 36.1202 54.8294 36.1202C53.1357 36.1202 51.7578 37.4982 51.7578 39.1918C51.7578 40.8855 53.1357 42.2634 54.8294 42.2634ZM54.8294 37.7957C55.5993 37.7957 56.2256 38.422 56.2256 39.1918C56.2256 39.9617 55.5993 40.588 54.8294 40.588C54.0596 40.588 53.4332 39.9617 53.4332 39.1918C53.4332 38.422 54.0596 37.7957 54.8294 37.7957Z"
    fill="#161616"
  ></path>
  <path
    d="M55.5049 44.1622H54.2092C52.6824 44.1622 51.3644 45.0643 50.7638 46.3599C49.5273 45.0101 47.7512 44.1622 45.7807 44.1622H44.2194C42.2489 44.1622 40.4728 45.0101 39.2362 46.3599C38.6356 45.0643 37.3176 44.1622 35.7908 44.1622H34.4952C32.4042 44.1622 30.7031 45.8531 30.7031 47.9314V54.0304C30.7031 54.9327 31.44 55.6668 32.3457 55.6668H37.4684C37.5543 56.6664 38.3949 57.4539 39.4165 57.4539H50.5836C51.6051 57.4539 52.4457 56.6664 52.5317 55.6668H57.5958C58.5339 55.6668 59.297 54.9067 59.297 53.9724V47.9314C59.2969 45.8531 57.5958 44.1622 55.5049 44.1622ZM32.3785 47.9314C32.3785 46.7769 33.3281 45.8376 34.4952 45.8376H35.7908C36.9579 45.8376 37.9074 46.7769 37.9074 47.9314V48.505C37.3441 49.9717 37.4606 50.8508 37.4606 53.9913H32.3785V47.9314ZM50.864 55.498C50.864 55.6527 50.7382 55.7784 50.5836 55.7784H39.4165C39.2618 55.7784 39.1361 55.6526 39.1361 55.498V50.921C39.1361 48.118 41.4164 45.8376 44.2193 45.8376H45.7806C48.5836 45.8376 50.864 48.118 50.864 50.9209V55.498ZM57.6215 53.9724C57.6215 54.0012 57.9338 53.9913 52.5394 53.9913C52.5394 50.8275 52.655 49.9693 52.0926 48.505V47.9314C52.0926 46.7769 53.0421 45.8376 54.2092 45.8376H55.5049C56.672 45.8376 57.6215 46.7769 57.6215 47.9314V53.9724Z"
    fill="#161616"
  ></path>
  <path
    d="M35.1693 42.2634C36.8629 42.2634 38.2408 40.8855 38.2408 39.1918C38.2408 37.4982 36.8629 36.1202 35.1693 36.1202C33.4756 36.1202 32.0977 37.4982 32.0977 39.1918C32.0977 40.8855 33.4756 42.2634 35.1693 42.2634ZM35.1693 37.7957C35.9391 37.7957 36.5654 38.422 36.5654 39.1918C36.5654 39.9617 35.9391 40.588 35.1693 40.588C34.3994 40.588 33.7731 39.9617 33.7731 39.1918C33.7731 38.422 34.3994 37.7957 35.1693 37.7957Z"
    fill="#161616"
  ></path>
</svg>

<svg width="90" height="90" viewBox="0 0 90 90" fill="none" xmlns="http://www.w3.org/2000/svg"><circle opacity=".5" cx="45" cy="45" r="45" fill="#FFE603"/><path d="M62.656 61.244h.15v-6.088a1.022 1.022 0 0 1 2.044 0v7.11c0 .564-.457 1.022-1.022 1.022h-7.11a1.022 1.022 0 1 1 0-2.044h5.938ZM27.194 61.094v.15H33.28a1.022 1.022 0 1 1 0 2.044h-7.11a1.022 1.022 0 0 1-1.021-1.022v-7.11a1.022 1.022 0 0 1 2.044 0v5.938ZM27.344 28.756h-.15v6.088a1.022 1.022 0 0 1-2.044 0v-7.11c0-.564.458-1.022 1.022-1.022h7.11a1.022 1.022 0 1 1 0 2.044h-5.938ZM62.806 28.906v-.15h-6.165a1.022 1.022 0 0 1 0-2.044h7.187c.564 0 1.022.458 1.022 1.022v7.11a1.022 1.022 0 0 1-2.044 0v-5.938Z" fill="#161616" stroke="#FFF281" stroke-width=".3"/><path d="M45 42.263c2.678 0 4.858-2.18 4.858-4.858 0-2.68-2.18-4.859-4.859-4.859a4.864 4.864 0 0 0-4.858 4.859c0 2.679 2.18 4.858 4.858 4.858Zm0-8.042a3.187 3.187 0 0 1 3.183 3.184 3.187 3.187 0 0 1-3.184 3.183 3.187 3.187 0 0 1-3.183-3.183 3.187 3.187 0 0 1 3.183-3.184ZM54.83 42.263a3.075 3.075 0 0 0 3.071-3.071 3.075 3.075 0 0 0-3.072-3.072 3.075 3.075 0 0 0-3.071 3.072 3.075 3.075 0 0 0 3.071 3.071Zm0-4.467c.77 0 1.396.626 1.396 1.396a1.398 1.398 0 0 1-2.792 0c0-.77.626-1.396 1.395-1.396ZM55.505 44.162h-1.296a3.798 3.798 0 0 0-3.445 2.198 6.742 6.742 0 0 0-4.983-2.198h-1.562c-1.97 0-3.746.848-4.983 2.198a3.798 3.798 0 0 0-3.445-2.198h-1.296c-2.09 0-3.792 1.691-3.792 3.77v6.098c0 .903.737 1.637 1.643 1.637h5.122c.086 1 .927 1.787 1.948 1.787h11.168a1.958 1.958 0 0 0 1.948-1.787h5.064a1.7 1.7 0 0 0 1.701-1.695v-6.04c0-2.079-1.701-3.77-3.792-3.77Zm-23.127 3.77c0-1.155.95-2.094 2.117-2.094h1.296c1.167 0 2.116.939 2.116 2.093v.574c-.563 1.467-.446 2.346-.446 5.486h-5.082v-6.06Zm18.486 7.566a.28.28 0 0 1-.28.28H39.416a.28.28 0 0 1-.28-.28v-4.577a5.089 5.089 0 0 1 5.083-5.083h1.562a5.09 5.09 0 0 1 5.083 5.083v4.577Zm6.758-1.526c0 .03.312.02-5.083.02 0-3.164.116-4.023-.446-5.487v-.574c0-1.154.95-2.093 2.116-2.093h1.296c1.167 0 2.116.939 2.116 2.093v6.041ZM35.17 42.263a3.075 3.075 0 0 0 3.07-3.071 3.075 3.075 0 0 0-3.07-3.072 3.075 3.075 0 0 0-3.072 3.072 3.075 3.075 0 0 0 3.071 3.071Zm0-4.467c.77 0 1.395.626 1.395 1.396 0 .77-.626 1.396-1.396 1.396-.77 0-1.396-.626-1.396-1.396 0-.77.626-1.396 1.396-1.396Z" fill="#161616"/></svg>
